img/icons/logo.svg

<svg width="174" height="41" viewBox="0 0 174 41" fill="none" xmlns="http://www.w3.org/2000/svg">
<path d="M50.3921 11.5514H54.7869V29.8887H50.3921V11.5514ZM56.5302 22.965C56.5302 18.4298 59.2256 15.7238 63.3861 15.7238C67.5465 15.7238 70.2419 18.4298 70.2419 22.965C70.2419 27.5002 67.6051 30.2213 63.3861 30.2213C59.167 30.2213 56.5302 27.5757 56.5302 22.965ZM65.8325 22.965C65.8325 20.4706 64.8803 19.0042 63.3861 19.0042C61.8918 19.0042 60.9543 20.5159 60.9543 22.965C60.9543 25.414 61.8772 26.8955 63.3861 26.8955C64.8949 26.8955 65.8325 25.5047 65.8325 22.9801V22.965ZM71.8973 30.7806H76.1163C76.3171 31.2409 76.6566 31.6221 77.0842 31.8672C77.5118 32.1124 78.0047 32.2085 78.4895 32.1412C80.1596 32.1412 81.0385 31.2039 81.0385 29.8433V27.3036H80.9506C80.6005 28.082 80.0323 28.7343 79.3194 29.1762C78.6066 29.6181 77.7817 29.8294 76.9514 29.7829C73.7431 29.7829 71.619 27.2583 71.619 22.9196C71.619 18.5809 73.6406 15.8447 77.0099 15.8447C77.8663 15.81 78.7125 16.0463 79.4352 16.5218C80.1578 16.9974 80.7224 17.6894 81.0532 18.5053V18.5053V15.9807H85.448V29.7375C85.448 33.0482 82.6206 35.1042 78.4456 35.1042C74.5635 35.1042 72.1464 33.3052 71.8973 30.7957V30.7806ZM81.0532 22.9498C81.0532 20.7427 80.0717 19.3519 78.5188 19.3519C76.966 19.3519 76.0138 20.7276 76.0138 22.9498C76.0138 25.1721 76.9514 26.4268 78.5188 26.4268C80.0863 26.4268 81.0532 25.2023 81.0532 22.965V22.9498ZM87.1033 22.9498C87.1033 18.4146 89.7988 15.7086 93.9592 15.7086C98.1197 15.7086 100.83 18.4146 100.83 22.9498C100.83 27.485 98.1929 30.2062 93.9592 30.2062C89.7256 30.2062 87.1033 27.5757 87.1033 22.965V22.9498ZM96.4057 22.9498C96.4057 20.4555 95.4535 18.9891 93.9592 18.9891C92.465 18.9891 91.6007 20.5159 91.6007 22.9801C91.6007 25.4442 92.5236 26.9106 94.0178 26.9106C95.5121 26.9106 96.4057 25.5047 96.4057 22.9801V22.9498ZM102.5 12.6852C102.488 12.2273 102.609 11.7762 102.846 11.389C103.083 11.0019 103.427 10.6961 103.832 10.5105C104.238 10.325 104.688 10.2679 105.125 10.3466C105.563 10.4253 105.968 10.6362 106.288 10.9526C106.609 11.2689 106.832 11.6765 106.928 12.1237C107.025 12.5708 106.99 13.0374 106.829 13.4643C106.668 13.8911 106.388 14.259 106.024 14.5213C105.66 14.7836 105.229 14.9285 104.785 14.9377C104.491 14.9585 104.196 14.9164 103.918 14.8139C103.64 14.7114 103.386 14.5507 103.172 14.342C102.957 14.1333 102.787 13.8811 102.671 13.6012C102.555 13.3213 102.497 13.0197 102.5 12.7154V12.6852ZM102.5 16.011H106.895V29.8887H102.5V16.011ZM122.848 22.9498C122.848 27.485 120.899 30.0701 117.559 30.0701C116.703 30.1268 115.85 29.9108 115.117 29.4512C114.383 28.9915 113.804 28.3105 113.458 27.5002H113.37V34.3332H108.975V15.9807H113.37V18.46H113.458C113.788 17.6363 114.356 16.9375 115.084 16.4587C115.813 15.98 116.667 15.7445 117.53 15.7842C120.899 15.8447 122.906 18.4449 122.906 22.9801L122.848 22.9498ZM118.453 22.9498C118.453 20.7427 117.471 19.3368 115.933 19.3368C114.395 19.3368 113.414 20.7578 113.399 22.9498C113.384 25.1419 114.395 26.5478 115.933 26.5478C117.471 26.5478 118.453 25.1721 118.453 22.9801V22.9498ZM130.392 15.6935C134.04 15.6935 136.252 17.4774 136.354 20.3345H132.355C132.355 19.3519 131.564 18.7321 130.348 18.7321C129.132 18.7321 128.59 19.2159 128.59 19.9264C128.59 20.6369 129.074 20.8636 130.055 21.0753L132.868 21.6649C135.549 22.2544 136.691 23.3731 136.691 25.4744C136.691 28.3467 134.157 30.191 130.421 30.191C126.686 30.191 124.239 28.3467 124.049 25.5198H128.283C128.414 26.5478 129.206 27.1525 130.495 27.1525C131.784 27.1525 132.37 26.7141 132.37 25.9884C132.37 25.2628 131.96 25.1116 130.905 24.8849L128.371 24.3255C125.748 23.7662 124.371 22.33 124.371 20.2136C124.401 17.4925 126.759 15.7238 130.392 15.7238V15.6935ZM151.355 29.8585H147.122V27.2734H147.034C146.801 28.1413 146.288 28.901 145.579 29.4262C144.87 29.9515 144.008 30.2107 143.137 30.1608C142.469 30.2 141.801 30.0908 141.178 29.8406C140.555 29.5905 139.991 29.2052 139.524 28.7108C139.057 28.2163 138.699 27.6243 138.473 26.9747C138.247 26.3251 138.159 25.6331 138.215 24.9453V15.9807H142.61V23.9022C142.61 25.55 143.43 26.4268 144.792 26.4268C145.112 26.4275 145.428 26.3577 145.719 26.2221C146.01 26.0865 146.27 25.8882 146.481 25.6405C146.692 25.3929 146.849 25.1015 146.942 24.7861C147.034 24.4707 147.061 24.1384 147.019 23.8115V15.9807H151.414L151.355 29.8585ZM153.48 15.9807H157.728V18.6565H157.816C158.049 17.8001 158.551 17.0476 159.243 16.5169C159.934 15.9863 160.777 15.7073 161.639 15.7238C162.516 15.6513 163.387 15.9221 164.079 16.4823C164.772 17.0426 165.234 17.8511 165.375 18.7472H165.463C165.728 17.8416 166.279 17.053 167.027 16.5056C167.775 15.9582 168.678 15.6831 169.594 15.7238C170.191 15.703 170.787 15.8123 171.341 16.0445C171.895 16.2766 172.395 16.6265 172.81 17.0713C173.224 17.5162 173.543 18.046 173.747 18.6264C173.95 19.2069 174.032 19.8249 173.989 20.4404V29.8887H169.594V21.6497C169.594 20.138 168.935 19.4426 167.704 19.4426C167.43 19.4402 167.158 19.4986 166.907 19.6138C166.657 19.729 166.433 19.8983 166.251 20.1103C166.069 20.3224 165.933 20.5722 165.853 20.843C165.773 21.1138 165.749 21.3992 165.785 21.68V29.8887H161.61V21.5893C161.61 20.1985 160.951 19.4426 159.749 19.4426C159.472 19.4427 159.198 19.5035 158.944 19.621C158.691 19.7386 158.465 19.9101 158.281 20.1244C158.097 20.3387 157.959 20.5908 157.876 20.8642C157.794 21.1375 157.768 21.4259 157.801 21.7102V29.8887H153.406L153.48 15.9807Z" fill="white"/>
<path d="M38.1013 12.3829C37.3558 10.6238 36.3691 8.9844 35.1715 7.5151C33.401 5.27825 31.1916 3.45367 28.6886 2.16146C26.1857 0.869246 23.4459 0.1387 20.6496 0.0179001C17.8533 -0.1029 15.0639 0.388783 12.465 1.46059C9.86614 2.5324 7.51669 4.16004 5.57129 6.23637C3.62589 8.3127 2.12865 10.7907 1.17813 13.5071C0.227602 16.2236 -0.154663 19.117 0.0564947 21.9969C0.267652 24.8769 1.06744 27.678 2.40323 30.2159C3.73901 32.7539 5.5805 34.9712 7.8065 36.7218C9.23482 37.8675 10.8131 38.7989 12.4943 39.4883C14.8514 40.4851 17.3741 40.9985 19.9215 41C25.1797 40.988 30.2189 38.8251 33.9343 34.9853C37.6497 31.1455 39.7382 25.9422 39.7421 20.516C39.7459 17.7171 39.1873 14.9477 38.1013 12.3829ZM19.9069 4.17416C22.1944 4.17391 24.4544 4.68987 26.5284 5.6859C26.0226 5.9114 25.4909 6.0689 24.9462 6.15454C23.154 6.42226 21.4938 7.2809 20.2133 8.60229C18.9328 9.92369 18.1007 11.637 17.8413 13.4864C17.7274 14.5237 17.2703 15.4886 16.547 16.2184C15.8238 16.9483 14.8787 17.3983 13.8713 17.4925C12.0791 17.7603 10.4189 18.6189 9.13838 19.9403C7.85788 21.2617 7.02583 22.975 6.7664 24.8244C6.67856 25.8107 6.2708 26.7375 5.6091 27.4549C4.46741 24.9654 3.95453 22.2184 4.11819 19.4695C4.28186 16.7205 5.11673 14.0589 6.54514 11.7325C7.97355 9.40597 9.94906 7.49018 12.2878 6.16338C14.6266 4.83658 17.2526 4.14188 19.9215 4.14393L19.9069 4.17416ZM7.79185 31.0981C7.96764 30.9319 8.14344 30.7807 8.31923 30.5993C9.62251 29.2953 10.4591 27.5741 10.6924 25.7164C10.787 24.6721 11.2388 23.6968 11.9669 22.965C12.6675 22.2124 13.6105 21.7501 14.6184 21.6649C16.4107 21.3972 18.0709 20.5386 19.3514 19.2172C20.6319 17.8958 21.4639 16.1825 21.7234 14.333C21.7867 13.2408 22.2409 12.2118 22.9979 11.4456C23.7158 10.7077 24.6678 10.2621 25.6787 10.1909C27.3252 9.9571 28.8607 9.20176 30.0735 8.02909C31.4544 9.21137 32.6244 10.6336 33.5307 12.2317C33.4751 12.3093 33.4112 12.3803 33.3403 12.4433C32.641 13.2025 31.6992 13.6751 30.6888 13.7737C28.8947 14.0367 27.232 14.8938 25.9506 16.2161C24.6693 17.5384 23.8387 19.2542 23.5838 21.1056C23.4806 22.1463 23.0319 23.1182 22.3137 23.8566C21.5955 24.5949 20.652 25.0544 19.6432 25.157C17.8457 25.4227 16.1793 26.2796 14.8914 27.6005C13.6035 28.9214 12.7628 30.6357 12.4943 32.4889C12.4154 33.2278 12.1696 33.9372 11.7765 34.56C10.2734 33.6391 8.9273 32.4696 7.79185 31.0981ZM19.9069 36.9334C18.4203 36.9351 16.941 36.7214 15.5121 36.2985C16.0008 35.3582 16.3186 34.3335 16.4496 33.275C16.5523 32.2366 16.9989 31.2666 17.7141 30.5285C18.4293 29.7904 19.3694 29.3295 20.3756 29.2236C22.1705 28.9589 23.8341 28.1016 25.1174 26.7799C26.4008 25.4583 27.235 23.7433 27.4952 21.8917C27.5979 20.8533 28.0445 19.8832 28.7597 19.1451C29.4749 18.4071 30.415 17.9462 31.4212 17.8402C32.7719 17.6589 34.0593 17.14 35.1715 16.3285C35.789 18.7441 35.8622 21.2736 35.3853 23.7229C34.9085 26.1722 33.8942 28.4763 32.4205 30.4583C30.9468 32.4403 29.0527 34.0477 26.8835 35.157C24.7143 36.2663 22.3278 36.8481 19.9069 36.8579V36.9334Z" fill="#F2726F"/>
</svg>

<svg width="174" height="41" fill="none" xmlns="http://www.w3.org/2000/svg">
  <path d="M50.392 11.551h4.395V29.89h-4.395V11.55zm6.138 11.414c0-4.535 2.696-7.241 6.856-7.241s6.856 2.706 6.856 7.241-2.637 7.256-6.856 7.256c-4.219 0-6.856-2.645-6.856-7.256zm9.302 0c0-2.494-.952-3.96-2.446-3.96-1.494 0-2.432 1.51-2.432 3.96 0 2.449.923 3.93 2.432 3.93s2.446-1.39 2.446-3.915v-.015zm6.065 7.816h4.22c.2.46.54.841.967 1.086.428.245.92.341 1.406.274 1.67 0 2.549-.937 2.549-2.298v-2.54h-.088a4.25 4.25 0 01-1.632 1.873 4.06 4.06 0 01-2.368.607c-3.208 0-5.332-2.525-5.332-6.863 0-4.34 2.022-7.075 5.39-7.075a4.107 4.107 0 012.426.677 4.308 4.308 0 011.618 1.983v-2.524h4.395v13.757c0 3.31-2.827 5.366-7.002 5.366-3.882 0-6.3-1.799-6.549-4.308v-.015zm9.156-7.831c0-2.207-.981-3.598-2.534-3.598s-2.505 1.376-2.505 3.598.937 3.477 2.505 3.477c1.567 0 2.534-1.225 2.534-3.462v-.015zm6.05 0c0-4.535 2.696-7.241 6.856-7.241s6.871 2.706 6.871 7.24c0 4.536-2.637 7.257-6.87 7.257-4.234 0-6.857-2.63-6.857-7.241v-.015zm9.303 0c0-2.494-.953-3.96-2.447-3.96-1.494 0-2.358 1.526-2.358 3.99 0 2.464.923 3.93 2.417 3.93 1.494 0 2.388-1.405 2.388-3.93v-.03zm6.094-10.265a2.367 2.367 0 01.346-1.296c.237-.387.581-.693.986-.878a2.179 2.179 0 011.293-.164c.438.078.843.29 1.163.606.321.316.544.724.64 1.17.097.448.062.914-.099 1.341a2.302 2.302 0 01-.805 1.057 2.196 2.196 0 01-1.239.417 2.08 2.08 0 01-.867-.124 2.118 2.118 0 01-.746-.472 2.21 2.21 0 01-.501-.74 2.256 2.256 0 01-.171-.887v-.03zm0 3.326h4.395v13.878H102.5V16.01zm20.348 6.939c0 4.535-1.949 7.12-5.289 7.12a4.086 4.086 0 01-2.442-.619 4.28 4.28 0 01-1.659-1.95h-.088v6.832h-4.395V15.981h4.395v2.479h.088a4.31 4.31 0 011.626-2.001 4.109 4.109 0 012.446-.675c3.369.06 5.376 2.66 5.376 7.196l-.058-.03zm-4.395 0c0-2.207-.982-3.613-2.52-3.613s-2.519 1.42-2.534 3.613c-.015 2.192.996 3.598 2.534 3.598 1.538 0 2.52-1.376 2.52-3.568v-.03zm11.939-7.256c3.648 0 5.86 1.783 5.962 4.64h-3.999c0-.982-.791-1.602-2.007-1.602-1.216 0-1.758.484-1.758 1.194s.484.938 1.465 1.15l2.813.589c2.681.59 3.823 1.708 3.823 3.81 0 2.872-2.534 4.716-6.27 4.716-3.735 0-6.182-1.844-6.372-4.671h4.234c.131 1.028.923 1.633 2.212 1.633 1.289 0 1.875-.439 1.875-1.165 0-.725-.41-.876-1.465-1.103l-2.534-.56c-2.623-.559-4-1.995-4-4.111.03-2.721 2.388-4.49 6.021-4.49v-.03zm20.963 14.164h-4.233v-2.585h-.088a3.949 3.949 0 01-1.455 2.153 3.74 3.74 0 01-2.442.735 4.54 4.54 0 01-1.959-.32 4.67 4.67 0 01-1.654-1.13 4.846 4.846 0 01-1.051-1.736 4.956 4.956 0 01-.258-2.03v-8.964h4.395v7.921c0 1.648.82 2.525 2.182 2.525.32 0 .636-.07.927-.205.291-.136.551-.334.762-.582.211-.247.368-.538.461-.854.092-.315.119-.648.077-.975v-7.83h4.395l-.059 13.877zm2.125-13.877h4.248v2.676h.088a4.024 4.024 0 011.427-2.14 3.812 3.812 0 012.396-.793 3.425 3.425 0 012.44.758 3.635 3.635 0 011.296 2.265h.088a4.256 4.256 0 011.564-2.241 4.04 4.04 0 012.567-.782 4.146 4.146 0 011.747.32 4.264 4.264 0 011.469 1.027c.414.445.733.975.937 1.555a4.54 4.54 0 01.242 1.814v9.449h-4.395v-8.24c0-1.511-.659-2.206-1.89-2.206a1.871 1.871 0 00-.797.17 1.93 1.93 0 00-.656.497 1.992 1.992 0 00-.398.733 2.04 2.04 0 00-.068.837v8.209h-4.175v-8.3c0-1.39-.659-2.146-1.861-2.146-.277 0-.551.06-.805.178-.253.118-.479.29-.663.503a2.049 2.049 0 00-.405.74 2.103 2.103 0 00-.075.846v8.179h-4.395l.074-13.908z" fill="#fff"/>
  <path d="M38.101 12.383a20.145 20.145 0 00-2.93-4.868 19.945 19.945 0 00-6.482-5.354 19.335 19.335 0 00-8.04-2.143c-2.796-.12-5.585.37-8.184 1.443a19.796 19.796 0 00-6.894 4.775 20.563 20.563 0 00-4.393 7.271 21.058 21.058 0 00-1.122 8.49 20.94 20.94 0 002.347 8.219 20.292 20.292 0 005.403 6.506 19.036 19.036 0 004.688 2.766c2.357.997 4.88 1.51 7.428 1.512 5.258-.012 10.297-2.175 14.012-6.015 3.716-3.84 5.804-9.043 5.808-14.469a20.797 20.797 0 00-1.64-8.133zM19.907 4.174c2.287 0 4.547.516 6.621 1.512a6.28 6.28 0 01-1.582.469 8.302 8.302 0 00-4.733 2.447 8.767 8.767 0 00-2.372 4.884 4.592 4.592 0 01-1.294 2.732 4.336 4.336 0 01-2.676 1.274 8.302 8.302 0 00-4.733 2.448 8.767 8.767 0 00-2.372 4.884 4.464 4.464 0 01-1.157 2.63 16.778 16.778 0 01-1.49-7.985c.163-2.748.998-5.41 2.426-7.737a16.037 16.037 0 015.743-5.569 15.438 15.438 0 017.634-2.02l-.015.031zM7.792 31.098c.176-.166.351-.317.527-.499a8.383 8.383 0 002.373-4.883 4.472 4.472 0 011.275-2.751 4.095 4.095 0 012.651-1.3 8.301 8.301 0 004.733-2.448 8.767 8.767 0 002.372-4.884 4.477 4.477 0 011.275-2.887 4.148 4.148 0 012.68-1.255 7.928 7.928 0 004.395-2.162 15.77 15.77 0 013.458 4.203c-.056.077-.12.148-.19.211a4.155 4.155 0 01-2.652 1.33 8.272 8.272 0 00-4.738 2.443 8.737 8.737 0 00-2.367 4.89 4.596 4.596 0 01-1.27 2.75 4.34 4.34 0 01-2.67 1.301 8.343 8.343 0 00-4.753 2.444 8.81 8.81 0 00-2.397 4.888 4.845 4.845 0 01-.717 2.071 16.086 16.086 0 01-3.985-3.462zm12.115 5.835a15.42 15.42 0 01-4.395-.635c.489-.94.807-1.965.938-3.023a4.596 4.596 0 011.264-2.746 4.34 4.34 0 012.662-1.305 8.3 8.3 0 004.741-2.444 8.766 8.766 0 002.378-4.888 4.597 4.597 0 011.265-2.747 4.341 4.341 0 012.661-1.305 8.216 8.216 0 003.75-1.512c.618 2.416.691 4.946.214 7.395a16.607 16.607 0 01-2.965 6.735 15.969 15.969 0 01-5.537 4.699 15.452 15.452 0 01-6.976 1.7v.076z" fill="#F2726F"/>
</svg>
